img/icons/financial/asset-250.svg

<svg xmlns="http://www.w3.org/2000/svg" viewBox="0 0 49.12 49.12"><defs><style>.cls-1{fill:#231f20}</style></defs><g id="Layer_2" data-name="Layer 2"><g id="Icons"><g id="Shopping"><path class="cls-1" d="M47.9 1.08A1.22 1.22 0 0046.69 0H2.44a1.23 1.23 0 00-1.22 1.08L0 11.38a1.22 1.22 0 00.3.95 1.19 1.19 0 00.91.42h1V47.9a1.22 1.22 0 001.22 1.22H45.7a1.21 1.21 0 001.22-1.22V12.75h1a1.22 1.22 0 001.22-1.37zM9.75 46.68h-5.1v-8.22h5.1zm15 0h-12.5v-8.22h12.5zm7.43 0h-4.93v-8.22h4.93zm0-10.66H4.65v-18.5h27.53zm12.28 10.66h-9.83V17.52h9.83zm0-31.6H4.65v-2.33h39.83zM2.6 10.3l.93-7.85H45.6l.92 7.85z"/><path class="cls-1" d="M37.42 34.54a1.29 1.29 0 10-1.27-1.29 1.28 1.28 0 001.27 1.29z"/></g></g></g></svg>

<svg xmlns="http://www.w3.org/2000/svg" viewBox="0 0 49.12 49.12"><defs><style>.cls-1{fill:#231f20;}</style></defs><title>Asset 250</title><g id="Layer_2" data-name="Layer 2"><g id="Icons"><g id="Shopping"><path class="cls-1" d="M47.9,1.08A1.22,1.22,0,0,0,46.69,0H2.44A1.23,1.23,0,0,0,1.22,1.08L0,11.38a1.22,1.22,0,0,0,.3.95,1.19,1.19,0,0,0,.91.42h1V47.9a1.22,1.22,0,0,0,1.22,1.22H45.7a1.21,1.21,0,0,0,1.22-1.22V12.75h1a1.22,1.22,0,0,0,1.22-1.37ZM9.75,46.68H4.65V38.46h5.1Zm15,0H12.25V38.46h12.5Zm7.43,0H27.25V38.46h4.93Zm0-10.66H4.65V17.52H32.18ZM44.46,46.68H34.63V17.52h9.83Zm0-31.6H4.65V12.75H44.48ZM2.6,10.3l.93-7.85H45.6l.92,7.85Z"/><path class="cls-1" d="M37.42,34.54a1.29,1.29,0,1,0-1.27-1.29A1.28,1.28,0,0,0,37.42,34.54Z"/></g></g></g></svg>
